X:1
T:Anton, 66.866
T:Anton, 66.866
T:Anton Gerbsbach (1808-1848)
T:Public Domain Courtesy of the Cyber Hymnal™
C:Anton Gerbsbach (1808-1848)
Z:Public Domain
Z:Courtesy of the Cyber Hymnal™
%%score 1 2
L:1/8
Q:1/4=115
M:4/4
K:C
V:1 treble 
V:2 bass 
V:1
 [EG]2 | [EG]2 [CE]2 [DF]2 [EG]2 | [FA]6 [FA]2 | [EG]2 [Ec]2 [Ge]2 [Fd]2 | [Ec]6 [Ec]2 | %5
 [GB]2 [GA]2 [GB]2 [Gc]2 | [Gd]2 [Gc]2 [GB]2 [GB]2 | [Gc]2 [CE]2 [CF]2 [CG]2 | [FA]6 [FA]2 | %9
 [EG]2 [Ec]2 [Ge]2 [Fd]2 | [Ec]6 |] %11
V:2
 [C,C]2 | [C,C]2 [C,C]2 [C,C]2 [C,C]2 | [F,C]6 [F,C]2 | [G,C]2 [G,C]2 [G,C]2 [G,B,]2 | %4
 [C,C]6 [C,C]2 | [G,D]2 [G,C]2 [G,D]2 [G,E]2 | [G,F]2 [G,F]2 [G,D]2 [F,D]2 | %7
 [E,C]2 [C,C]2 [D,C]2 [E,C]2 | [F,C]6 [F,C]2 | [G,C]2 [G,C]2 [G,C]2 [G,B,]2 | [C,C]6 |] %11

